X:1
T:James Gibb editions
T:Aegra currit ad medicum - Lasso
T:#
%%score [ 1 2 ]
L:1/8
Q:1/4=112
M:2/2
K:D
V:1 treble-8 nm="Tenor I" snm="T I"
V:2 treble-8 nm="Tenor II" snm="T II"
V:1
"^Aegra currit ad medicum""^Orlando di Lasso\n(1532-94)" z4 d4- | d4 c4 | z2 (AB cd e2) | A4 F4 | %4
w: Ae-|* gra|cur\- * * * *|rit ad|
 (G3 F GA B2 |[M:2/2][K:treble-8] B2 ^A2 B4 | z2 d2 B4 | G2 E2 F2 (G2- | GABc d4- | d2) c2 B4 | %10
w: me\- * * * *|* di- cum,|vas fe-|rens a- ro- ma\-||* ti- cum,|
 z2 c4 e2 | d4 c4 | z2 B2 dc cB/A/ | B2) G2 F4 | z2 B2 (ABcA | d3) d c2 F2 | z2 F2 (FGAB | %17
w: et a|mor- bo|mul- ti\- * * * *|* pli- ci|ver- bo * * *|* cu- ra- tur,|ver- bo * * *|
 c2 d2 c4 | F6 (A2- | A2 GF GF B2- | B2) ^A2 B3 =A/G/ | F4) z2 B2 | (ABcA d3) d | c2 F2 z2 F2 | %24
w: * cu- ra-|tur me\-||* di- ci, * *|* ver-|bo * * * * cu-|ra- tur, ver-|
 (FGAB c2) d2 |[Q:1/4=109] c4[Q:1/4=105] F2[Q:1/4=104] (B[Q:1/4=102]A | %26
w: bo * * * * cu-|ra- tur me\- *|
[Q:1/4=101] B[Q:1/4=100]A[Q:1/4=99] A[Q:1/4=98]G/[Q:1/4=97]F/[Q:1/4=96] G2)[Q:1/4=94] G2 | %27
w: * * * * * * di-|
[Q:1/4=93] F8 |] %28
w: ci.|
V:2
 G8 | F4 z2 (AB | cd e2) A4 | z2 c4 (d2- | dcBA BcdB |[M:2/2][K:treble-8] c4 d2) d2 | B4 z2 G2 | %7
w: Ae-|gra cur\- *|* * * rit|ad me\-||* * di-|cum, vas|
 B4 (d3 c | B2) G4 F2 | (GF A4) ^G2 | A8 | z2 F4 A2 | G4 F4 | z2 B2 (dc cB/A/ | B2) G2 F4 | %15
w: fe- rens *|* a- ro-|ma\- * * ti-|cum,|et a|mor- bo|mul- ti\- * * * *|* pli- ci|
 z2 B2 (ABcA | d3) d c2 F2 | z2 F2 (FGAB | c2) d2 c4 | F2 d4 d2 | c4 z2 B2 | (ABcA d3) d | %22
w: ver- bo * * *|* cu- ra- tur,|ver- bo * * *|* cu- ra-|tur me- di-|ci, ver-|bo * * * * cu-|
 c2 F2 z2 F2 | (FGAB c2) d2 | c4 F4- | F2 (A4 GF | GF F4) E2 | F8 |] %28
w: ra- tur, ver-|bo * * * * cu-|ra- tur|* me\- * *|* * * di-|ci.|

